!!!!SEGMENT: pl-wtm--r-2454_hertz-michal--piesni-czolem.krn
!!!cenid: 18xx:2385
!!!COM: Hertz, Michał
!!!COM-rismid: pe41023359
!!!CDT: 1844/09/28-~1918
!!!CNT: Polish
!!!OTL: Pieśni czołem
!!!PDT:
!!!AGN:
!!!SMS-siglum: PL-Wtm
!!!SMS-shelfmark: R 2454
!!!SMS-shelfwork: W
!!!SMS-variant:
!!!SMS-altvar:
!!!NIFC-rismid: 1001083072
!!!URL-scan: http://repozytorium.nifc.pl/skany/pl-wtm-nut--r2454
!!!ONB-nifc:
!!!OMD: Moderato.
!!!AIN: 2 empty
!!!key:
**kern	**kern	**text	**dynam
*part2	*part1	*part1	*part1
*staff2	*staff1	*staff1	*
*Iempty	*Iempty	*	*
*I"	*I"	*	*
*clefF4	*clefG2	*	*
*k[f#c#g#]	*k[f#c#g#]	*	*
*A:	*A:	*	*
*M3/4	*M3/4	*	*
=1	=1	=1	=1
*2\right	*2\right	*	*
*^	*^	*	*
!	!	!	!	!	!LO:DY:b
(2AA/	(2AA\	(2e/	(2c#\	Leć,	f <
8.C#/)	8.C#\)	8.a/)	8.e\)	.	.
16E/	16E\	16cc#/	16a\	o	[[
=2	=2	=2	=2	=2	=2
!	!	!	!	!	!LO:DY:a
4F#/	4D#X\	4cc#/	4a\	pie-	>
4F#/	4D#\	4b#X/	4a\	-śni,	.
4rF	4rEEyy	4r	4rcyy	.	]
=3	=3	=3	=3	=3	=3
!	!	!	!	!	!LO:DY:a
(2Dn/	(2Dn\	(2bn/	(2f#\	leć	<
8.F#/)	8.F#\)	8.dd/)	8.b\)	.	.
16B/	16B\	16ff#/	16dd\	so-	.
=4	=4	=4	=4	=4	=4
4B/	4A\	4ff#/	4dd\	-ko-	[
!	!	!	!	!	!LO:DY:a
4B/	4A\	4ee#X/	4dd\	-łem!	>
4rF	4rEEyy	4r	4rcyy	.	]
!LO:TX:t=[coda]:b:rj	!	!	!	!	!
=5	=5	=5	=5	=5	=5
!!linebreak:original
[2B/	(2G#\	(2een/	[2dd\	To-	.
8.B/]	8.A\)	8.ff#/)	8.dd\]	.	.
16B/	16G#\	16ee/	16dd\	-bie	.
*v	*v	*	*	*	*
=6	=6	=6	=6	=6
4A\ 4c#	4aa/	4ee\	czo-	.
4C#\ 4A	4ee/	4a\	-łem,	.
4r	4r	4rcyy	.	.
=7	=7	=7	=7	=7
*^	*	*	*	*
[2F#/	(2F#\	(2cc#/	[2a\	zie-	.
8.F#/]	8.D\)	8.b/)	8.a\]	.	.
16G#/	16E\	16ee/	16b\	-mi	.
=8	=8	=8	=8	=8	=8
4A/	4A\	4ee/	4cc#\	czo-	.
4C#/	4AA\	4a/	4e\	-łem.	.
4rF	4rEEyy	4r	4rcyy	.	.
!!linebreak:original
==9	==9	==9	==9	==9	==9
!	!	!LO:TX:a:t=[coda]	!	!	!
!	!	!LO:TX:t=P:problem=takty 9-12 zapisane na skanie 0006 jako alternatywne zakończenie, wśród licznych innych, niepełnych prób kompozytorskich	!	!	!
(2B/	(2G#\	(2ee#X/	[2cc#\	To-	.
8.A/)	8.F#\)	8.ff#/)	8.cc#\]	.	.
16G#/	16E#X\	16gg#/	16cc#\	-bie	.
=10	=10	=10	=10	=10	=10
(4.F#/	(4.F#\	(4.aa/	4..cc#\	czo-	.
16A/)	16A\)	16gg#/)	.	.	.
16A/	16AA\	16ff#/	16cc#\	-łem	.
8.F#/	8.BB\	8.dd/	8.b\	zie-	.
16F#/	16D\	16b/	16b\	-mi	.
=11	=11	=11	=11	=11	=11
(2.G#/	(2.E\	[2.ee/	(2.dd\	czo-	.
=12	=12	=12	=12	=12	=12
4A/)	4A\)	4ee/]	4cc#\)	.	.
4C#/	4AA\	4a/	4e\	-łem!	.
4rFyy	4rEEyy	4r	4rcyy	.	.
*v	*v	*	*	*	*
*	*v	*v	*	*
=||	=||	=||	=||
*-	*-	*-	*-
!!!system-decoration: [(s1,s2)]
!!!ENC: Mateusz Solarz
!!!END: 2021-06-10
!!!ENC: Krzysztof Stępień
!!!END: 2021-10-14
